symbols/web/phone_callback/materialsymbolssharp/phone_callback_wght300grad200_20px.svg

<svg xmlns="http://www.w3.org/2000/svg" height="20" width="20"><path d="M10.542 9.208V3.979h1.875v2.063l4.021-4.084 1.333 1.334-4.042 4.041h2v1.875Zm6.354 8.5q-2.813.021-5.438-1.218-2.625-1.24-4.677-3.282Q4.729 11.167 3.5 8.531 2.271 5.896 2.271 3.062q0-.187.031-.437t.073-.417h5.104l.854 4.375-2.458 2.438q.833 1.417 2.146 2.781 1.312 1.365 2.812 2.24l2.5-2.48 4.396.98v5.041q-.146.084-.406.105-.261.02-.427.02ZM5 7.25 6.333 6l-.416-1.917H4.25q.021.896.229 1.646.209.75.521 1.521Zm7.604 7.708q.792.334 1.636.521.843.188 1.614.271V14l-1.937-.417ZM5 7.25Zm7.604 7.708Z"/></svg>

<svg xmlns="http://www.w3.org/2000/svg" height="20" width="20"><path d="M10.542 9.208V3.979H12.417V6.042L16.438 1.958L17.771 3.292L13.729 7.333H15.729V9.208ZM16.896 17.708Q14.083 17.729 11.458 16.49Q8.833 15.25 6.781 13.208Q4.729 11.167 3.5 8.531Q2.271 5.896 2.271 3.062Q2.271 2.875 2.302 2.625Q2.333 2.375 2.375 2.208H7.479L8.333 6.583L5.875 9.021Q6.708 10.438 8.021 11.802Q9.333 13.167 10.833 14.042L13.333 11.562L17.729 12.542V17.583Q17.583 17.667 17.323 17.688Q17.062 17.708 16.896 17.708ZM5 7.25 6.333 6 5.917 4.083H4.25Q4.271 4.979 4.479 5.729Q4.688 6.479 5 7.25ZM12.604 14.958Q13.396 15.292 14.24 15.479Q15.083 15.667 15.854 15.75V14L13.917 13.583ZM5 7.25Q5 7.25 5 7.25Q5 7.25 5 7.25ZM12.604 14.958Q12.604 14.958 12.604 14.958Q12.604 14.958 12.604 14.958Z"/></svg>
